X:1
T:Tittery Nan
M:6/8
L:1/8
K:F
 F| FFF C2 C| F2 A c3| cBB A2 A| G2 G F2 F| F2 F C2 C| F2 A c3| A,2 D C3|\
 A,2 D C3| FFF F2 F| A2 F F2||

